front/public/static/landing/logos/dust/Dust_LogoSquare_MonoWhite.svg

<svg fill="none" height="48" viewBox="0 0 48 48" width="48" xmlns="http://www.w3.org/2000/svg"><path clip-rule="evenodd" d="m12 24c6.6274 0 12-5.3726 12-12 0 6.6274 5.3726 12 12 12zm0 12c-3.31371 0-6-2.6863-6-6s2.68629-6 6-6h-12v-12-12h12c6.6274 0 12 5.37258 12 12v-12h12 12v12c0 6.6274-5.3726 12-12 12h12v12h-12v12h-12v-12zm0 0c3.3137 0 6 2.6863 6 6s-2.6863 6-6 6h-12v-12z" fill="#fff" fill-rule="evenodd"/></svg>

<svg width="48" height="48" viewBox="0 0 48 48" fill="none" xmlns="http://www.w3.org/2000/svg">
<path fill-rule="evenodd" clip-rule="evenodd" d="M12 24C18.6274 24 24 18.6274 24 12C24 18.6274 29.3726 24 36 24H12ZM12 36C8.68629 36 6 33.3137 6 30C6 26.6863 8.68629 24 12 24H0V12V0H12C18.6274 0 24 5.37258 24 12V0H36H48V12C48 18.6274 42.6274 24 36 24H48V36H36V48H24V36H12ZM12 36C15.3137 36 18 38.6863 18 42C18 45.3137 15.3137 48 12 48H0V36H12Z" fill="white"/>
</svg>
